X:386
T: SITZT A SCHENS VEGERL
N: E1575B
O: Europa, Mitteleuropa, Oesterreich
R: Staende - Lied, Fuhrmann
M: 3/8
L: 1/16
K: F
 | A2A2A2 | B2A2B2 | c2A2F2 |
A2A2A2 | B2A2B2 | c6 |
A2A2A2 | B2A2B2 | c2A2F2 |
A2A2A2 | B2BABG | F6

@@@ Tune index: 5070
